flaticon/constructions/ruler-5.svg

<svg xmlns="http://www.w3.org/2000/svg" width="32" height="32" viewBox="0 0 24 24">
    <path d="M 23.878906 4.464844 L 21.386719 1.972656 C 21.367188 1.925781 21.335938 1.882812 21.296875 1.84375 C 21.257812 1.804688 21.214844 1.773438 21.167969 1.753906 L 19.535156 0.121094 C 19.371094 -0.0390625 19.125 -0.0390625 18.960938 0.121094 L 0.121094 18.960938 C -0.0390625 19.125 -0.0390625 19.371094 0.121094 19.535156 L 4.464844 23.878906 C 4.546875 23.960938 4.628906 24 4.75 24 C 4.875 24 4.996094 23.960938 5.039062 23.878906 L 23.878906 5.039062 C 24.039062 4.875 24.039062 4.628906 23.878906 4.464844 Z M 22.136719 5.632812 L 21.582031 5.078125 C 21.417969 4.914062 21.175781 4.914062 21.011719 5.078125 C 20.847656 5.242188 20.847656 5.488281 21.011719 5.652344 L 21.5625 6.203125 L 20.394531 7.371094 L 19.25 6.226562 C 19.085938 6.0625 18.839844 6.0625 18.675781 6.226562 C 18.511719 6.390625 18.511719 6.636719 18.675781 6.796875 L 19.824219 7.945312 L 18.675781 9.09375 L 18.101562 8.519531 C 17.9375 8.355469 17.691406 8.355469 17.527344 8.519531 C 17.363281 8.683594 17.363281 8.929688 17.527344 9.09375 L 18.101562 9.664062 L 16.914062 10.851562 L 15.769531 9.707031 C 15.605469 9.542969 15.359375 9.542969 15.195312 9.707031 C 15.03125 9.871094 15.03125 10.117188 15.195312 10.28125 L 16.339844 11.425781 L 15.195312 12.574219 L 14.621094 12 C 14.457031 11.835938 14.210938 11.835938 14.046875 12 C 13.882812 12.164062 13.882812 12.410156 14.046875 12.574219 L 14.621094 13.148438 L 13.433594 14.335938 L 12.285156 13.1875 C 12.121094 13.023438 11.878906 13.023438 11.714844 13.1875 C 11.550781 13.351562 11.550781 13.597656 11.714844 13.761719 L 12.859375 14.90625 L 11.714844 16.054688 L 11.140625 15.480469 C 10.976562 15.316406 10.730469 15.316406 10.566406 15.480469 C 10.402344 15.644531 10.402344 15.890625 10.566406 16.054688 L 11.140625 16.628906 L 9.972656 17.796875 L 8.847656 16.667969 C 8.683594 16.503906 8.4375 16.503906 8.273438 16.667969 C 8.109375 16.832031 8.109375 17.078125 8.273438 17.242188 L 9.398438 18.367188 L 8.230469 19.535156 L 7.660156 18.960938 C 7.496094 18.796875 7.25 18.796875 7.085938 18.960938 C 6.921875 19.125 6.921875 19.371094 7.085938 19.535156 L 7.660156 20.109375 L 6.511719 21.257812 L 5.363281 20.109375 C 5.203125 19.945312 4.957031 19.945312 4.792969 20.109375 C 4.628906 20.273438 4.628906 20.519531 4.792969 20.683594 L 5.9375 21.828125 L 4.75 23.015625 L 2.722656 20.988281 L 4.464844 19.25 C 4.628906 19.085938 4.628906 18.839844 4.464844 18.675781 C 4.300781 18.511719 4.054688 18.511719 3.890625 18.675781 L 2.148438 20.417969 L 1.863281 20.128906 L 5.9375 16.054688 C 6.101562 15.890625 6.101562 15.644531 5.9375 15.480469 C 5.773438 15.316406 5.527344 15.316406 5.363281 15.480469 L 1.289062 19.554688 L 0.984375 19.25 L 19.207031 1.023438 L 19.515625 1.332031 L 18.675781 2.171875 C 18.511719 2.335938 18.511719 2.582031 18.675781 2.742188 C 18.757812 2.824219 18.839844 2.867188 18.960938 2.867188 C 19.042969 2.867188 19.167969 2.824219 19.25 2.742188 L 20.089844 1.90625 L 20.375 2.191406 L 17.527344 5.039062 C 17.363281 5.203125 17.363281 5.445312 17.527344 5.609375 C 17.609375 5.691406 17.691406 5.734375 17.816406 5.734375 C 17.898438 5.734375 18.019531 5.691406 18.101562 5.609375 L 20.949219 2.765625 L 22.976562 4.792969 Z M 22.136719 5.632812"/>
    <path d="M7.945312 13.472656C7.78125 13.3125 7.535156 13.3125 7.371094 13.472656L6.511719 14.335938C6.347656 14.5 6.347656 14.742188 6.511719 14.90625 6.59375 14.988281 6.675781 15.03125 6.796875 15.03125 6.878906 15.03125 7.003906 14.988281 7.085938 14.90625L7.945312 14.046875C8.109375 13.882812 8.109375 13.636719 7.945312 13.472656zM10.238281 10.566406L8.519531 12.285156C8.355469 12.449219 8.355469 12.695312 8.519531 12.859375 8.601562 12.941406 8.683594 12.984375 8.804688 12.984375 8.929688 12.984375 9.050781 12.941406 9.09375 12.859375L10.8125 11.140625C10.976562 10.976562 10.976562 10.730469 10.8125 10.566406 10.648438 10.402344 10.402344 10.402344 10.238281 10.566406zM9.992188 12.574219L7.371094 15.195312C7.207031 15.359375 7.207031 15.605469 7.371094 15.769531 7.453125 15.851562 7.535156 15.890625 7.660156 15.890625 7.78125 15.890625 7.863281 15.851562 7.945312 15.769531L10.566406 13.148438C10.730469 12.984375 10.730469 12.738281 10.566406 12.574219 10.402344 12.410156 10.15625 12.410156 9.992188 12.574219zM6.226562 16.339844L5.078125 17.488281C4.914062 17.652344 4.914062 17.898438 5.078125 18.0625 5.160156 18.144531 5.242188 18.183594 5.363281 18.183594 5.445312 18.183594 5.570312 18.144531 5.652344 18.0625L6.796875 16.914062C6.960938 16.75 6.960938 16.503906 6.796875 16.339844 6.636719 16.175781 6.390625 16.175781 6.226562 16.339844zM16.054688 5.324219C15.890625 5.160156 15.644531 5.160156 15.480469 5.324219L11.425781 9.378906C11.261719 9.542969 11.261719 9.789062 11.425781 9.953125 11.507812 10.035156 11.589844 10.074219 11.714844 10.074219 11.835938 10.074219 11.917969 10.035156 12 9.992188L16.054688 5.898438C16.21875 5.734375 16.21875 5.488281 16.054688 5.324219zM18.0625 3.316406C17.898438 3.152344 17.652344 3.152344 17.488281 3.316406L16.628906 4.175781C16.464844 4.339844 16.464844 4.585938 16.628906 4.75 16.710938 4.832031 16.792969 4.875 16.914062 4.875 17.039062 4.875 17.121094 4.832031 17.203125 4.75L18.0625 3.890625C18.226562 3.726562 18.226562 3.480469 18.0625 3.316406zM16.339844 6.226562L15.195312 7.371094C15.03125 7.535156 15.03125 7.78125 15.195312 7.945312 15.277344 8.027344 15.359375 8.066406 15.480469 8.066406 15.605469 8.066406 15.6875 8.027344 15.769531 7.945312L16.914062 6.796875C17.078125 6.636719 17.078125 6.390625 16.914062 6.226562 16.75 6.0625 16.503906 6.0625 16.339844 6.226562zM14.046875 8.519531L11.140625 11.425781C10.976562 11.589844 10.976562 11.835938 11.140625 12 11.222656 12.082031 11.304688 12.121094 11.425781 12.121094 11.550781 12.121094 11.632812 12.082031 11.714844 12L14.621094 9.09375C14.785156 8.929688 14.785156 8.683594 14.621094 8.519531 14.457031 8.355469 14.210938 8.355469 14.046875 8.519531zM14.046875 8.519531"/>
</svg>

<svg xmlns="http://www.w3.org/2000/svg" width="32" height="32" viewBox="0 0 24 24">
    <path d="M23.879 4.465l-2.492-2.492a.405.405 0 0 0-.09-.13.405.405 0 0 0-.129-.09L19.535.122a.403.403 0 0 0-.574 0L.12 18.961a.403.403 0 0 0 0 .574l4.344 4.344A.37.37 0 0 0 4.75 24c.125 0 .246-.04.29-.121l18.839-18.84a.403.403 0 0 0 0-.574zm-1.742 1.168l-.555-.555a.392.392 0 0 0-.57 0 .396.396 0 0 0 0 .574l.55.551-1.167 1.168-1.145-1.144a.396.396 0 0 0-.574 0 .392.392 0 0 0 0 .57l1.148 1.148-1.148 1.149-.574-.574a.396.396 0 0 0-.575 0 .396.396 0 0 0 0 .574l.575.57-1.188 1.188-1.144-1.145a.396.396 0 0 0-.575 0 .396.396 0 0 0 0 .574l1.145 1.145-1.145 1.148-.574-.574a.396.396 0 0 0-.574 0 .396.396 0 0 0 0 .574l.574.574-1.187 1.188-1.149-1.149a.392.392 0 0 0-.57 0 .396.396 0 0 0 0 .575l1.144 1.144-1.144 1.149-.574-.575a.396.396 0 0 0-.575 0 .396.396 0 0 0 0 .575l.575.574-1.168 1.168-1.125-1.129a.396.396 0 0 0-.575 0 .396.396 0 0 0 0 .574l1.125 1.125-1.168 1.168-.57-.574a.396.396 0 0 0-.574 0 .396.396 0 0 0 0 .574l.574.574-1.148 1.149-1.149-1.149a.392.392 0 0 0-.57 0 .396.396 0 0 0 0 .575l1.144 1.144-1.187 1.188-2.027-2.028 1.742-1.738a.396.396 0 0 0 0-.574.396.396 0 0 0-.574 0l-1.743 1.742-.285-.29 4.075-4.073a.396.396 0 0 0 0-.575.396.396 0 0 0-.575 0L1.29 19.555l-.305-.305L19.207 1.023l.309.309-.84.84a.392.392 0 0 0 0 .57.373.373 0 0 0 .285.125.45.45 0 0 0 .289-.125l.84-.836.285.285-2.848 2.848a.392.392 0 0 0 0 .57.375.375 0 0 0 .29.125.442.442 0 0 0 .285-.125l2.847-2.843 2.028 2.027zm0 0"/>
    <path d="M7.945 13.473a.403.403 0 0 0-.574 0l-.86.863a.392.392 0 0 0 0 .57.373.373 0 0 0 .286.125.45.45 0 0 0 .289-.125l.86-.86a.396.396 0 0 0 0-.573zm0 0M10.238 10.566l-1.718 1.72a.396.396 0 0 0 0 .573.373.373 0 0 0 .285.125c.125 0 .246-.043.289-.125l1.719-1.718a.396.396 0 0 0 0-.575.396.396 0 0 0-.575 0zm0 0M9.992 12.574l-2.62 2.621a.396.396 0 0 0 0 .575.372.372 0 0 0 .288.12.37.37 0 0 0 .285-.12l2.621-2.622a.396.396 0 0 0 0-.574.396.396 0 0 0-.574 0zm0 0M6.227 16.34l-1.149 1.148a.396.396 0 0 0 0 .575.37.37 0 0 0 .285.12c.082 0 .207-.038.29-.12l1.144-1.149a.396.396 0 0 0 0-.574.392.392 0 0 0-.57 0zm0 0M16.055 5.324a.396.396 0 0 0-.575 0L11.426 9.38a.396.396 0 0 0 0 .574.372.372 0 0 0 .289.121.57.57 0 0 0 .285-.082l4.055-4.094a.396.396 0 0 0 0-.574zm0 0M18.063 3.316a.396.396 0 0 0-.575 0l-.86.86a.396.396 0 0 0 0 .574.373.373 0 0 0 .286.125.375.375 0 0 0 .29-.125l.858-.86a.396.396 0 0 0 0-.574zm0 0M16.34 6.227L15.195 7.37a.396.396 0 0 0 0 .574.37.37 0 0 0 .285.121c.125 0 .207-.039.29-.12l1.144-1.15a.392.392 0 0 0 0-.57.396.396 0 0 0-.574 0zm0 0M14.047 8.52l-2.906 2.906a.396.396 0 0 0 0 .574.37.37 0 0 0 .285.121c.125 0 .207-.039.289-.121l2.906-2.906a.396.396 0 0 0 0-.574.396.396 0 0 0-.574 0zm0 0"/>
</svg>
